X:1
T:E paar Sennische. Bb
T:Naturjodel rund um den Saentis (www.roothuus-gonten.ch)
%%partsbox
%P:
Q:1/4=60
R:Naturjodel
M:4/4
L:1/8
K:Bb %  (%%MIDI gchordo) 
[P:A] F3F | d3cB3A/B/ | [M:6/4] "F7"c3BA4F3F | [M:4/4] e3dc3B/c/ | [M:6/4] "(F7"d3c "Bb)"B4F3F | 
w: dro li u dü dü dü-rü  ü rü dü dro li  ü dü dü dü-rü  u rü du dro li 
"Bb"d3cB3A/B/ | [M:6/4] "F7"c3BA4F3F | [M:4/4] e3dc2 {/e}d2 | "Bb"{/c}B6 z2 |] 
w: u dü dü dü-rü  ü rü dü dro li  ü rü dü (ü)du (ü)dü 
[M:3/4]
[P:B] GF | "Bb"F3Bd2 | f4=ef | "F7"g4f2 | [M:5/4] "Bb"d3cB4GF | [M:7/4] "F7"F3A c3B A4 GF | 
w: dro-li bo ü dü u du-u dü du u ru du dro-li bo ü dü rü dü dro-li 
"Bb"F3B d3c B4 GF | [M:3/4] "Bb"F3Bd2 | f4=ef | "F7"g4f2 | [M:5/4] "Bb"d3cB4GF | 
w: do ü dü rü dü dro-li bo ü dü u du u dü du u ru du dro-li 
[M:3/4]  "F7"F3Ac2 | f3c d2  | {/c} "Bb"(B6 | B4) |]
w: do ü dü dü-u dü (ü)dü
[P:C] GF | "F7"F2A2c>B | A4GF | "Bb"F2B2 d>c |  B4GF | "F7"F2A2 c>B | 
w: dro-li  bo ü ü-dü dü dro-li bo ü ü-ru dü dro-li bo ü bü-rü 
A4GF | "Bb"F2B2 d>c | B4GF | "Bb"F3Bd2 | f4 =ef | "F7"g4f2 | 
w: dü dro-li bo ü ü-rü dü dro-li bo ü dü u du-u dü du 
[M:5/4] "Bb"d3cB4GF | [M:3/4] "F7"F3Ac2 | f3cd2 | "Bb"{/c}(B6 | B4)z2 |] 
w: u ru du dro-li do ü dü dü-u dü (ü)dü
W:
%W:Parts: ABC
W: Hohe Singlage, Bruststimme bis g' ; Kopfstimme bis g''
W:trad./AI (Appenzell Innerrhoden)
W:Jodler Josef Inauen (Felders Seff 1888-1956)
W:dazu Hackbrett und Kontrabass
W:Schellackplatte Odeon A 208080 (1929) "E paar Sennische"
W: 
W:https://www.roothuus-gonten.ch/mediendateien/jodel/pdf/E paar Sennische.pdf
W: *AUDIO*:  www.roothuus-gonten.ch/cms/index.php/de/naturjodel-rund-um-den-saentis
% © 2015 ROOTHUUS GONTEN. #13.10 (SCH037B)
% Feb. 5, 2019

